X: 2
T: Miss Drummond of Perths Favorite Scots Measure
S: &quot;Malcolm MacDonald's 4th Collection of Strathspey Reels&quot;, 1797
M: 2/2
L: 1/8
R: Scotch measure
K: Gmin
|: GA |\ 
B2 AB G2 GA | B2 Bc d2 cB | A2 f2 F2 G2 | ABcF D2 GA | 
B2 AB G^FGA | BABc d2 (=e^f) | g2 d2 (=ed)(cB) | tr(A4 G2) :|
|: ga |\ 
b2 a2 g2 (^f/g/a) | g2 d2 d2 =e2 | f3g fgaB | cBAG F2 (GA) | 
BABG cBcA | dcd=e fefd | g2 d2 _edcB | trA4 G2 :| 
|: D/E/^F |\ 
G^FGA BABc | dcBA GABG | AcFc AGAF | fgac ABcA | 
G^FGA BABc | dcBA GABG | ABcA d2 cB | trA4 G2 :|
|: g^f |\ 
gdgd gdgd | B2 AB G2 d=e | fcfc fcfc | A2 GA F2 ga | 
b2 ag a2 g^f | g2 ab d2 cB | c2 g2 G2 g^f | g4 G2 :|
